X: 148
T: Cold and Raw
N: "a Scots Air" handwritten after the title.
P: Longways for as many as will
%R: jig
B: "The Compleat Country Dancing-Master" printed by John Walsh, London ca. 1740
S: 6: CCDM1 http://imslp.org/wiki/The_Compleat_Country_Dancing-Master_(Various) V.1 p.105 #153 (209)
B: "The Dancing-Master: Containing Directions and Tunes for Dancing" printed by W. Pearson for John Walsh, London ca. 1709
S: 7: DMDfD http://digital.nls.uk/special-collections-of-printed-music/pageturner.cfm?id=89751228 p.146
Z: 2013 John Chambers <jc:trillian.mit.edu>
N: The two versions have only trivial differences in spelling and punctuation.
M: 6/4
L: 1/4
K: Am
% - - - - - - - - - - - - - - - - - - - - - - - - -
[|\
A2A c2d | (ef)g ^G2G | A2A e2c | A2 c2 |][|\
c2c c2B/c/ | d2d d2d | e2e a2g | e3 g3 |\
c2c c2B/c/ | d2d d>ef | e>dc (Bc)^G | A3 e3 |]
% - - - - - - - - - - - - - - - - - - - - - - - - -
%%begintext align
%% The 1st Cu. go Back to Back with their Partners, and the 2d Cu. do the
%% same at the same Time.
%%endtext
%%sep 1 1 300
%%begintext align
%% The 1st Man take Hands with his Partner and turn her round, the 2d
%% Cu. doing the same at the same time.
%%endtext
%%sep 1 1 300
%%begintext align
%% The two We. stand still, while the 1st Man goes round about the 2d
%% Wo. into the 2d Man's Place, and the 2d Man goes round abou the
%% 1st Wo. into the 1st Man's Place then all clap Hands, then all four
%% take Hands and go quite round, the We. doing the like.
%%endtext
%%sep 1 8 500

%%sep 1 1 500
%%sep 1 1 500
